X:108
M:C|
L:1/8
K:C
~c2ed ~c2GB|cGAF ECCE|DEFG ABcA|d2 AG FDD||
f|ecgc acgc|ecgc ecce|fdad bdad|fgag fddf|ecgc acgc|GAcd eccg|
afge fdf^c|d2AG FDD||

